src/assets/images/location.svg

<svg width="31" height="42" viewBox="0 0 31 42" fill="none" xmlns="http://www.w3.org/2000/svg">
<path d="M30.5 15.3908C30.5 17.0433 29.9395 19.0635 28.9993 21.2749C28.0627 23.478 26.7667 25.831 25.3349 28.1372C22.4716 32.7491 19.0896 37.1355 17.0241 39.7023C16.2313 40.6806 14.7687 40.6806 13.9759 39.7023C11.9104 37.1355 8.52835 32.7491 5.66512 28.1372C4.23333 25.831 2.93732 23.478 2.00068 21.2749C1.06049 19.0635 0.5 17.0433 0.5 15.3908C0.5 7.17329 7.21551 0.5 15.5 0.5C23.7845 0.5 30.5 7.17329 30.5 15.3908ZM19.5057 11.4084C18.4427 10.3529 17.0018 9.76056 15.5 9.76056C13.9982 9.76056 12.5573 10.3529 11.4943 11.4084C10.4312 12.464 9.83333 13.8965 9.83333 15.3908C9.83333 16.8852 10.4312 18.3177 11.4943 19.3733C12.5573 20.4288 13.9982 21.0211 15.5 21.0211C17.0018 21.0211 18.4427 20.4288 19.5057 19.3733C20.5688 18.3177 21.1667 16.8852 21.1667 15.3908C21.1667 13.8965 20.5688 12.464 19.5057 11.4084Z" fill="#019223" stroke="white"/>
<circle cx="15.4999" cy="15.4999" r="6.33099" fill="white"/>
</svg>

<svg xmlns="http://www.w3.org/2000/svg" width="31" height="42" fill="none" viewBox="0 0 31 42"><path fill="#019223" stroke="#fff" d="M30.5 15.39c0 1.653-.56 3.674-1.5 5.885-.937 2.203-2.233 4.556-3.665 6.862-2.863 4.612-6.245 8.998-8.31 11.565a1.95 1.95 0 0 1-3.05 0c-2.065-2.566-5.447-6.953-8.31-11.565-1.432-2.306-2.728-4.659-3.664-6.862C1.06 19.064.5 17.043.5 15.39.5 7.173 7.216.5 15.5.5c8.285 0 15 6.673 15 14.89zm-10.994-3.982A5.685 5.685 0 0 0 15.5 9.761a5.685 5.685 0 0 0-4.006 1.647 5.612 5.612 0 0 0-1.66 3.983 5.61 5.61 0 0 0 1.66 3.982 5.685 5.685 0 0 0 4.006 1.648 5.685 5.685 0 0 0 4.006-1.648 5.612 5.612 0 0 0 1.66-3.982 5.612 5.612 0 0 0-1.66-3.983z"/><circle cx="15.5" cy="15.5" r="6.33" fill="#fff"/></svg>
